X:2717
T:Casino. WM.034
M:6/8
L:1/8
Q:120
S:Wm.Mittell's MS,New Romney,Kent,1799
R:Jig
O:England
A:Kent
Z:vmp.Chris Partington
K:G
B2AB2A|G2G GAB|c2Bc2B|A2A A2B|!
c2c cde|edc Bcd|dcB cBA|G2GG3:|!
|:d2d dBG|e2ee3|c2c cAF|d2dd3|!
G2DB2G|d2Bg2d|edc BAG|A2DD3:|]


